X:1
T:Title
%%score { ( 1 3 ) | ( 2 4 ) }
L:1/8
M:2/4
K:Eb
V:1 treble nm="Grand Piano"
V:3 treble 
V:2 bass 
V:4 bass 
V:1
 z2 z[Q:1/4=92] G | G>G BB | A2 [B,DA]2 | [B,EG]3 [A,DF] | [G,E]>[G,E] [G,E][G,E] | [CEB]2 [CEA]2 | %6
[M:3/8] [B,DF]3 |[M:1/8] [B,DF] |[M:2/4] [B,EG]>[B,EG] [CFA][B,FB] | [Gc]2 [Fc]2 | [Fd]3 [Fd] | %11
 e>B GA | [CEF]2 [DF]-[A,DF] |[M:3/8] E3 |[M:1/8] B |[M:2/4] B2 B2 | B3 B | c2 c2 | c3 [Ge] | %19
 B2 G2 | F2 Bc | d2 c2 |[M:3/8] [DB]3 |[M:1/8] [DB] |[M:2/4] B2 B2 | B2 cd | e2 [Ae]2 | %27
 [Ge]2 .[Fd]2 | [B,GB]2 [EGc]2 | [CFA]2 [CEG]2 | F2- [B,DF]2 |[M:3/8] E3 |] %32
V:2
 z2 z [E,B,E] | [E,B,E]>[E,B,E] [G,B,E][G,B,E] | [F,CE]2 B,,2 | E,3 B,, | C,>C, C,C, | A,,2 A,,2 | %6
[M:3/8] B,,3 |[M:1/8] B,, |[M:2/4] E,>E, E,D, | [E,B,]2 [F,=A,]2 | [B,,B,]3 [B,,A,] | %11
 [E,G,E]>[E,G,E] [E,B,E][E,CE] | A,,2 B,,2 |[M:3/8] [E,G,]3 |[M:1/8] [E,G,E] | %15
[M:2/4] [E,G,E]2 [F,A,D]2 | [G,B,E]3 [E,G,E] | [A,E]2 [G,B,=E]2 | [F,A,F]3 [E,B,] | %19
 [G,B,E]2 [E,B,E]2 | [F,B,D]2 [F,DF]2 | [F,B,F]2 [F,=A,E]2 |[M:3/8] [B,,B,]3 |[M:1/8] [B,,A,] | %24
[M:2/4] [E,G,E]2 [F,A,D]2 | [G,B,E]2 [A,E]2 | [E,G,E]2 [E,C]2 | [E,B,]2 z[K:treble] c | E,2 E,2 | %29
 F,2 F,2 | A,,2 z A, |[M:3/8] E,3 |] %32
V:3
 x4 | x4 | x4 | x4 | x4 | x4 |[M:3/8] x3 |[M:1/8] x |[M:2/4] x4 | x4 | x4 | x4 | z2 .B,2 | %13
[M:3/8] x3 |[M:1/8] x |[M:2/4] x4 | x4 | x4 | x4 | x4 | x4 | x4 |[M:3/8] x3 |[M:1/8] x | %24
[M:2/4] x4 | x4 | x4 | x4 | x4 | x4 | [CE]2 z2 |[M:3/8] x3 |] %32
V:4
 x4 | x4 | x4 | x4 | x4 | x4 |[M:3/8] x3 |[M:1/8] x |[M:2/4] x4 | x4 | x4 | x4 | x4 |[M:3/8] x3 | %14
[M:1/8] x |[M:2/4] x4 | x4 | x4 | x4 | x4 | x4 | x4 |[M:3/8] x3 |[M:1/8] x |[M:2/4] x4 | x4 | x4 | %27
 z2 [E,=A,]2[K:treble] | x4 | x4 | z2 B,,2 |[M:3/8] x3 |] %32

